img/foundation-icons/fi-align-left.svg

<?xml version="1.0" encoding="utf-8"?>
<!-- Generator: Adobe Illustrator 17.0.0, SVG Export Plug-In . SVG Version: 6.00 Build 0)  -->
<!DOCTYPE svg PUBLIC "-//W3C//DTD SVG 1.1//EN" "http://www.w3.org/Graphics/SVG/1.1/DTD/svg11.dtd">
<svg version="1.1" id="Layer_1" xmlns="http://www.w3.org/2000/svg" xmlns:xlink="http://www.w3.org/1999/xlink" x="0px" y="0px"
	 width="100px" height="100px" viewBox="0 0 100 100" enable-background="new 0 0 100 100" xml:space="preserve">
<g>
	<path d="M81.232,15.138H18.769c-1.882,0-3.407,1.525-3.407,3.407v3.143c0,1.881,1.525,3.407,3.407,3.407h62.463
		c1.881,0,3.407-1.525,3.407-3.407v-3.143C84.639,16.663,83.113,15.138,81.232,15.138z"/>
	<path d="M18.769,45.008h45.634h0c1.881,0,3.407-1.525,3.407-3.407h0v-3.143h0c0-1.882-1.525-3.407-3.407-3.407h0H18.769
		c-1.882,0-3.407,1.525-3.407,3.407v3.143C15.361,43.483,16.887,45.008,18.769,45.008z"/>
	<path d="M74.403,74.905L74.403,74.905H18.769c-1.882,0-3.407,1.525-3.407,3.407v3.143c0,1.881,1.525,3.407,3.407,3.407h55.634h0
		c1.881,0,3.407-1.525,3.407-3.407h0.015v-3.143H77.81C77.81,76.431,76.284,74.905,74.403,74.905z"/>
	<path d="M18.769,64.94h38.82v0l0,0c1.881,0,3.407-1.525,3.407-3.407c0,0,0-0.001,0-0.001v-3.141l0-0.001
		c0-1.882-1.525-3.407-3.407-3.407l0,0v0h-38.82c-1.882,0-3.407,1.525-3.407,3.407v3.143C15.361,63.414,16.887,64.94,18.769,64.94z"
		/>
</g>
</svg>

<svg xmlns="http://www.w3.org/2000/svg" width="100" height="100" viewBox="0 0 100 100"><path d="M81.232 15.138H18.77a3.407 3.407 0 0 0-3.408 3.407v3.143a3.407 3.407 0 0 0 3.407 3.407H81.23a3.407 3.407 0 0 0 3.407-3.407v-3.143a3.407 3.407 0 0 0-3.408-3.407zM18.77 45.008h45.633A3.407 3.407 0 0 0 67.81 41.6V38.46a3.407 3.407 0 0 0-3.407-3.407H18.77a3.407 3.407 0 0 0-3.408 3.408V41.6a3.406 3.406 0 0 0 3.407 3.408zM74.403 74.905H18.77a3.407 3.407 0 0 0-3.408 3.407v3.143a3.407 3.407 0 0 0 3.407 3.407h55.633a3.407 3.407 0 0 0 3.407-3.407h.015v-3.143h-.015a3.408 3.408 0 0 0-3.407-3.407zM18.77 64.94h38.82a3.407 3.407 0 0 0 3.406-3.407V58.39a3.407 3.407 0 0 0-3.407-3.407H18.77a3.407 3.407 0 0 0-3.408 3.407v3.143a3.407 3.407 0 0 0 3.407 3.407z"/></svg>
